src/assets/Symbol2.svg

<svg width="15" height="16" viewBox="0 0 15 16" fill="none" xmlns="http://www.w3.org/2000/svg">
<path d="M14.5605 11.4805C14.7949 11.5977 14.9707 11.8613 14.9707 12.1543C14.9707 12.1836 14.9707 12.2422 14.9707 12.3008L14.2676 15.3477C14.1797 15.6699 13.916 15.875 13.5938 15.875C6.06445 15.875 0 9.81055 0 2.28125C0 1.95898 0.205078 1.69531 0.527344 1.60742L3.57422 0.904297C3.63281 0.904297 3.69141 0.875 3.7207 0.875C4.01367 0.875 4.27734 1.05078 4.39453 1.31445L5.80078 4.5957C5.83008 4.68359 5.85938 4.77148 5.85938 4.85938C5.85938 5.09375 5.74219 5.29883 5.5957 5.41602L3.80859 6.88086C4.89258 9.16602 6.70898 10.9824 8.99414 12.0664L10.459 10.2793C10.5762 10.1328 10.7812 10.0156 10.9863 10.0156C11.1035 10.0156 11.1914 10.0449 11.2793 10.0742L14.5605 11.4805Z" fill="#ABABAB"/>
</svg>

<svg xmlns="http://www.w3.org/2000/svg" width="15" height="16" fill="none" viewBox="0 0 15 16"><path fill="#ababab" d="M14.56 11.48c.235.118.41.381.41.674v.147l-.702 3.047a.69.69 0 0 1-.674.527A13.566 13.566 0 0 1 0 2.281c0-.322.205-.586.527-.674L3.574.904c.059 0 .117-.029.147-.029a.74.74 0 0 1 .674.44L5.8 4.594c.03.089.058.176.058.264 0 .235-.117.44-.263.557L3.809 6.881a10.87 10.87 0 0 0 5.185 5.185l1.465-1.787a.71.71 0 0 1 .527-.263c.117 0 .205.029.293.058z"/></svg>
